X:10
T:389. Richard Brennan’s
T:Shaun Maguire’s
R:double jig
S:Mike Rafferty
H:Dick Brennan, a fiddler from Kilavil, Co Sligo, was a member of the
H:Glenview Céilí Band with fiddlers Peter Horan, Willie Coleman, Fred Finn, and
H:others. The tune is a derivation of an older jig called “Paddy O’Carrol’s”. [FC]
B:Paddy O’Carrol’s is in O'Neill 1850, #986, pg. 183. O'Neill 1001, #202, pg. 47.
B:Mulvihill No. 69, pg. 79 (appears as “Richard Brennan’s”).
D:Copley Records EP9-20 (45 RPM), Paddy O’Brien.
Z:Lesl
M:6/8
K:D
DE|:~F3 FED|FAF FEF|DFA dAF|~E3 EDE|
~F3 FED|FAF FEF|DFA dAF|1 ~E3 D2E:|2 ~E3 D2e||
|:fdf ece|dcd AFA|fed edc|dfb aag|
~f3 ~e3|d2z AFA|DFA dAF|1 ~E3 D2e:|2 ~E3 D3||

